;FLAVOR:Marlin
;TIME:16354
;Filament used: 11.5321m
;Layer height: 0.2
;MINX:19
;MINY:43
;MINZ:0.2
;MAXX:216
;MAXY:192
;MAXZ:14
;Generated with Cura_SteamEngine 5.2.2
M140 S80
M105
M190 S80
M104 S230
M105
M109 S230
M82 ;absolute extrusion mode
; Ender 3 Custom Start G-code
G92 E0 ; Reset Extruder
G28 ; Home all axes
G1 Z2.0 F3000 ; Move Z Axis up little to prevent scratching of Heat Bed
G1 X0.1 Y20 Z0.3 F5000.0 ; Move to start position
G1 X0.1 Y200.0 Z0.3 F1500.0 E15 ; Draw the first line
G1 X0.4 Y200.0 Z0.3 F5000.0 ; Move to side a little
G1 X0.4 Y20 Z0.3 F1500.0 E30 ; Draw the second line
G92 E0 ; Reset Extruder
G1 Z2.0 F3000 ; Move Z Axis up little to prevent scratching of Heat Bed
G1 X5 Y20 Z0.3 F5000.0 ; Move over to prevent blob squish
G92 E0
G92 E0
G1 F2700 E-6
;LAYER_COUNT:70
;LAYER:0
M107
G0 F6000 X50.985 Y46.483 Z0.2
;TYPE:SKIRT
G1 F2700 E0
G1 F900 X51.655 Y45.827 E0.03119
G1 X52.379 Y45.231 E0.06238
G1 X53.151 Y44.698 E0.09358
G1 X53.965 Y44.233 E0.12476
G1 X54.816 Y43.839 E0.15595
G1 X55.698 Y43.519 E0.18716
G1 X56.604 Y43.275 E0.21836
G1 X57.527 Y43.109 E0.24956
G1 X58.701 Y43.013 E0.28873
G1 X59.33 Y43 E0.30966
G1 X204.451 Y43.001 E5.1364
G1 X205.149 Y43.011 E5.15962
G1 X206.085 Y43.065 E5.1908
G1 X207.013 Y43.197 E5.22198
G1 X207.927 Y43.409 E5.25319
G1 X208.819 Y43.698 E5.28437
G1 X209.684 Y44.061 E5.31557
G1 X210.514 Y44.497 E5.34676
G1 X211.305 Y45.002 E5.37797
G1 X212.049 Y45.573 E5.40916
G1 X212.742 Y46.205 E5.44036
G1 X213.379 Y46.893 E5.47154
G1 X213.954 Y47.634 E5.50274
G1 X214.465 Y48.42 E5.53392
G1 X214.907 Y49.248 E5.56514
G1 X215.276 Y50.11 E5.59632
G1 X215.571 Y51 E5.62751
G1 X215.789 Y51.912 E5.6587
G1 X215.929 Y52.84 E5.68991
G1 X215.987 Y53.701 E5.71861
G1 X216 Y54.33 E5.73954
G1 X215.999 Y180.4 E9.93264
G1 X215.99 Y181.127 E9.95683
G1 X215.939 Y182.064 E9.98804
G1 X215.807 Y182.992 E10.01921
G1 X215.598 Y183.906 E10.0504
G1 X215.311 Y184.799 E10.0816
G1 X214.949 Y185.665 E10.11281
G1 X214.515 Y186.496 E10.144
G1 X214.011 Y187.287 E10.17519
G1 X213.442 Y188.032 E10.20637
G1 X212.811 Y188.727 E10.23759
G1 X212.124 Y189.365 E10.26877
G1 X211.385 Y189.942 E10.29996
G1 X210.599 Y190.454 E10.33116
G1 X209.773 Y190.897 E10.36233
G1 X208.911 Y191.269 E10.39356
G1 X208.022 Y191.565 E10.42472
G1 X207.11 Y191.785 E10.45593
G1 X206.183 Y191.926 E10.48711
G1 X205.299 Y191.987 E10.51659
G1 X204.67 Y192 E10.53751
G1 X30.565 Y191.999 E16.32827
G1 X29.867 Y191.99 E16.35148
G1 X28.931 Y191.938 E16.38266
G1 X28.002 Y191.806 E16.41387
G1 X27.088 Y191.596 E16.44506
G1 X26.195 Y191.309 E16.47626
G1 X25.33 Y190.946 E16.50746
G1 X24.499 Y190.512 E16.53864
G1 X23.708 Y190.008 E16.56984
G1 X22.963 Y189.438 E16.60104
G1 X22.269 Y188.807 E16.63224
G1 X21.632 Y188.12 E16.6634
G1 X21.055 Y187.38 E16.69461
G1 X20.543 Y186.594 E16.72581
G1 X20.1 Y185.767 E16.75701
G1 X19.729 Y184.906 E16.78819
G1 X19.433 Y184.016 E16.81939
G1 X19.214 Y183.104 E16.85058
G1 X19.073 Y182.177 E16.88177
G1 X19.013 Y181.288 E16.91141
G1 X19 Y180.658 E16.93236
G1 X19.001 Y84.55 E20.12893
G1 X19.011 Y83.849 E20.15225
G1 X19.064 Y82.913 E20.18343
G1 X19.197 Y81.984 E20.21464
G1 X19.409 Y81.071 E20.24582
G1 X19.697 Y80.178 E20.27702
G1 X20.061 Y79.314 E20.30821
G1 X20.497 Y78.483 E20.33942
G1 X21.002 Y77.693 E20.37061
G1 X21.572 Y76.949 E20.40178
G1 X22.204 Y76.256 E20.43297
G1 X22.893 Y75.619 E20.46418
G1 X23.726 Y74.978 E20.49914
G1 X26.123 Y73.31 E20.59627
G1 X28.154 Y71.806 E20.68033
G1 X30.123 Y70.259 E20.76361
G1 X32.079 Y68.633 E20.84821
G1 X33.961 Y66.975 E20.93163
G1 X35.785 Y65.275 E21.01456
G1 X37.58 Y63.504 E21.09843
G1 X39.318 Y61.688 E21.18204
G1 X41.038 Y59.787 E21.2673
G1 X42.651 Y57.9 E21.34987
G1 X44.231 Y55.941 E21.43358
G1 X45.755 Y53.938 E21.51729
G1 X47.237 Y51.873 E21.60183
G1 X48.63 Y49.811 E21.68459
G1 X49.468 Y48.494 E21.73651
G1 X49.824 Y47.954 E21.75802
G1 X50.373 Y47.194 E21.78921
G1 X50.985 Y46.483 E21.82041
G0 F6000 X51.3 Y46.732
G1 F900 X51.961 Y46.091 E21.85103
G1 X52.674 Y45.509 E21.88165
G1 X53.436 Y44.992 E21.91227
G1 X54.239 Y44.542 E21.94289
G1 X55.079 Y44.164 E21.97353
G1 X55.948 Y43.86 E22.00415
G1 X56.84 Y43.633 E22.03476
G1 X57.748 Y43.484 E22.06536
G1 X58.712 Y43.413 E22.09751
G1 X59.33 Y43.4 E22.11807
G1 X204.445 Y43.401 E26.94462
G1 X205.143 Y43.411 E26.96784
G1 X206.062 Y43.464 E26.99845
G1 X206.973 Y43.597 E27.02907
G1 X207.869 Y43.808 E27.05969
G1 X208.743 Y44.096 E27.0903
G1 X209.59 Y44.459 E27.12095
G1 X210.401 Y44.894 E27.15156
G1 X211.171 Y45.398 E27.18216
G1 X211.895 Y45.967 E27.21279
G1 X212.567 Y46.597 E27.24343
G1 X213.182 Y47.282 E27.27405
G1 X213.735 Y48.018 E27.30467
G1 X214.222 Y48.799 E27.33528
G1 X214.639 Y49.62 E27.36591
G1 X214.984 Y50.474 E27.39654
G1 X215.253 Y51.354 E27.42715
G1 X215.445 Y52.255 E27.45779
G1 X215.558 Y53.168 E27.48838
G1 X215.587 Y53.712 E27.5065
G1 X215.6 Y54.33 E27.52706
G1 X215.599 Y180.395 E31.72
G1 X215.59 Y181.122 E31.74418
G1 X215.539 Y182.041 E31.7748
G1 X215.408 Y182.953 E31.80544
G1 X215.198 Y183.849 E31.83605
G1 X214.912 Y184.724 E31.86667
G1 X214.551 Y185.571 E31.89729
G1 X214.117 Y186.383 E31.92791
G1 X213.615 Y187.155 E31.95854
G1 X213.047 Y187.88 E31.98917
G1 X212.419 Y188.553 E32.01979
G1 X211.735 Y189.169 E32.05041
G1 X211 Y189.723 E32.08102
G1 X210.22 Y190.212 E32.11164
G1 X209.4 Y190.631 E32.14227
G1 X208.547 Y190.977 E32.17288
G1 X207.667 Y191.248 E32.20351
G1 X206.767 Y191.441 E32.23412
G1 X205.853 Y191.556 E32.26476
G1 X205.288 Y191.587 E32.28358
G1 X204.67 Y191.6 E32.30414
G1 X30.57 Y191.599 E38.09473
G1 X29.872 Y191.59 E38.11795
G1 X28.953 Y191.538 E38.14856
G1 X28.042 Y191.407 E38.17917
G1 X27.146 Y191.197 E38.20978
G1 X26.271 Y190.91 E38.24041
G1 X25.424 Y190.548 E38.27105
G1 X24.612 Y190.114 E38.30167
G1 X23.841 Y189.612 E38.33227
G1 X23.116 Y189.044 E38.3629
G1 X22.443 Y188.415 E38.39354
G1 X21.828 Y187.731 E38.42414
G1 X21.274 Y186.996 E38.45475
G1 X20.786 Y186.215 E38.48538
G1 X20.367 Y185.395 E38.51601
G1 X20.021 Y184.542 E38.54662
G1 X19.751 Y183.662 E38.57724
G1 X19.558 Y182.761 E38.60788
G1 X19.444 Y181.848 E38.63849
G1 X19.413 Y181.277 E38.65751
G1 X19.4 Y180.658 E38.6781
G1 X19.401 Y84.556 E41.87446
G1 X19.411 Y83.855 E41.89778
G1 X19.464 Y82.936 E41.9284
G1 X19.597 Y82.025 E41.95902
G1 X19.808 Y81.129 E41.98964
G1 X20.096 Y80.254 E42.02028
G1 X20.459 Y79.408 E42.05089
G1 X20.894 Y78.597 E42.0815
G1 X21.398 Y77.826 E42.11214
G1 X21.967 Y77.102 E42.14277
G1 X22.596 Y76.43 E42.17338
G1 X23.281 Y75.815 E42.204
G1 X23.954 Y75.306 E42.23206
G1 X26.36 Y73.631 E42.32957
G1 X28.415 Y72.11 E42.41461
G1 X30.381 Y70.566 E42.49775
G1 X32.316 Y68.957 E42.58145
G1 X34.214 Y67.285 E42.66558
G1 X36.091 Y65.535 E42.75093
G1 X37.849 Y63.8 E42.83309
G1 X39.637 Y61.933 E42.91907
G1 X41.308 Y60.087 E43.00188
G1 X42.964 Y58.147 E43.08672
G1 X44.562 Y56.167 E43.17135
G1 X46.066 Y54.191 E43.25394
G1 X47.561 Y52.108 E43.33922
G1 X48.972 Y50.019 E43.42306
G1 X49.802 Y48.715 E43.47447
G1 X50.158 Y48.175 E43.49599
G1 X50.698 Y47.429 E43.52662
G1 X51.3 Y46.732 E43.55725
G0 F6000 X51.615 Y46.982
G1 F900 X52.265 Y46.356 E43.58726
G1 X52.969 Y45.789 E43.61733
G1 X53.719 Y45.287 E43.64735
G1 X54.511 Y44.854 E43.67737
G1 X55.339 Y44.492 E43.70742
G1 X56.195 Y44.205 E43.73745
G1 X57.073 Y43.994 E43.76749
G1 X57.967 Y43.862 E43.79754
G1 X58.723 Y43.813 E43.82274
G1 X59.33 Y43.8 E43.84293
G1 X204.439 Y43.801 E48.66928
G1 X205.137 Y43.811 E48.6925
G1 X206.039 Y43.864 E48.72255
G1 X206.932 Y43.996 E48.75257
G1 X207.81 Y44.207 E48.78261
G1 X208.666 Y44.495 E48.81265
G1 X209.493 Y44.857 E48.84267
G1 X210.285 Y45.292 E48.87273
G1 X211.036 Y45.794 E48.90277
G1 X211.739 Y46.361 E48.93281
G1 X212.389 Y46.988 E48.96285
G1 X212.981 Y47.67 E48.99288
G1 X213.511 Y48.401 E49.02292
G1 X213.973 Y49.177 E49.05295
G1 X214.366 Y49.99 E49.08299
G1 X214.684 Y50.835 E49.11302
G1 X214.927 Y51.705 E49.14306
G1 X215.092 Y52.593 E49.1731
G1 X215.187 Y53.723 E49.21082
G1 X215.2 Y54.33 E49.23101
G1 X215.199 Y180.39 E53.42378
G1 X215.19 Y181.117 E53.44797
G1 X215.139 Y182.019 E53.47801
G1 X215.008 Y182.913 E53.50807
G1 X214.799 Y183.791 E53.53808
G1 X214.513 Y184.648 E53.56813
G1 X214.152 Y185.476 E53.59818
G1 X213.72 Y186.268 E53.62818
G1 X213.219 Y187.02 E53.65824
G1 X212.653 Y187.724 E53.68828
G1 X212.028 Y188.375 E53.7183
G1 X211.347 Y188.969 E53.74835
G1 X210.616 Y189.5 E53.7784
G1 X209.842 Y189.964 E53.80842
G1 X209.029 Y190.358 E53.83847
G1 X208.185 Y190.678 E53.86849
G1 X207.315 Y190.923 E53.89855
G1 X206.428 Y191.089 E53.92856
G1 X205.277 Y191.187 E53.96698
G1 X204.67 Y191.2 E53.98718
G1 X30.575 Y191.199 E59.7776
G1 X29.877 Y191.19 E59.80082
G1 X28.976 Y191.139 E59.83083
G1 X28.082 Y191.007 E59.86089
G1 X27.204 Y190.798 E59.89091
G1 X26.347 Y190.511 E59.92097
G1 X25.52 Y190.15 E59.95098
G1 X24.727 Y189.717 E59.98103
G1 X23.976 Y189.216 E60.01106
G1 X23.272 Y188.65 E60.0411
G1 X22.621 Y188.024 E60.07114
G1 X22.028 Y187.343 E60.10118
G1 X21.498 Y186.612 E60.13121
G1 X21.034 Y185.837 E60.16125
G1 X20.64 Y185.024 E60.1913
G1 X20.32 Y184.18 E60.22132
G1 X20.076 Y183.31 E60.25137
G1 X19.91 Y182.422 E60.28142
G1 X19.813 Y181.267 E60.31997
G1 X19.8 Y180.658 E60.34023
G1 X19.801 Y84.562 E63.5364
G1 X19.811 Y83.861 E63.55972
G1 X19.864 Y82.959 E63.58977
G1 X19.996 Y82.066 E63.61979
G1 X20.207 Y81.187 E63.64986
G1 X20.495 Y80.331 E63.6799
G1 X20.857 Y79.504 E63.70992
G1 X21.291 Y78.712 E63.73996
G1 X21.794 Y77.962 E63.77
G1 X22.361 Y77.259 E63.80004
G1 X22.987 Y76.609 E63.83005
G1 X23.669 Y76.016 E63.86011
G1 X24.183 Y75.635 E63.88139
G1 X26.581 Y73.966 E63.97856
G1 X28.633 Y72.447 E64.06348
G1 X30.62 Y70.886 E64.14752
G1 X32.59 Y69.249 E64.23271
G1 X34.505 Y67.561 E64.31762
G1 X36.362 Y65.83 E64.40205
G1 X38.137 Y64.079 E64.48498
G1 X39.924 Y62.212 E64.57094
G1 X41.608 Y60.351 E64.65442
G1 X43.282 Y58.392 E64.74012
G1 X44.859 Y56.436 E64.82369
G1 X46.406 Y54.404 E64.90863
G1 X47.89 Y52.337 E64.99326
G1 X49.292 Y50.261 E65.07658
G1 X50.042 Y49.08 E65.12311
G1 X50.492 Y48.395 E65.15037
G1 X51.022 Y47.664 E65.1804
G1 X51.615 Y46.982 E65.21046
G1 F2700 E59.21046
;MESH:96-well with skirt_v2.stl
G0 F6000 X63.404 Y97.878
G0 X61.991 Y98.991
G0 X61.468 Y99.71
G0 X61.193 Y100.555
G0 X61.193 Y101.445
G0 X61.468 Y102.29
G0 X61.991 Y103.009
G0 X62.71 Y103.532
G0 X63.394 Y103.754
G0 X64.475 Y103.963
;TYPE:WALL-INNER
G1 F2700 E65.21046
G1 F900 X64 Y104.005 E65.22632
G1 X63.525 Y103.963 E65.24218
G1 X63.071 Y103.852 E65.25773
G1 X62.63 Y103.671 E65.27358
G1 X62.231 Y103.423 E65.28921
G1 X61.871 Y103.116 E65.30495
G1 X61.57 Y102.759 E65.32048
G1 X61.342 Y102.394 E65.33479
G1 X61.172 Y101.995 E65.34922
G1 X61.141 Y101.91 E65.35222
G1 X61.039 Y101.488 E65.36666
G1 X60.996 Y100.992 E65.38322
G1 X61.041 Y100.503 E65.39956
G1 X61.145 Y100.077 E65.41414
G1 X61.327 Y99.635 E65.43004
G1 X61.573 Y99.236 E65.44563
G1 X61.875 Y98.881 E65.46113
G1 X62.234 Y98.575 E65.47682
G1 X62.646 Y98.321 E65.49292
G1 X63.075 Y98.143 E65.50837
G1 X63.527 Y98.037 E65.52381
G1 X64.008 Y97.996 E65.53986
G1 X64.468 Y98.036 E65.55522
G1 X64.92 Y98.142 E65.57066
G1 X65.371 Y98.326 E65.58686
G1 X65.765 Y98.571 E65.6023
G1 X66.127 Y98.878 E65.61808
G1 X66.429 Y99.235 E65.63364
G1 X66.675 Y99.631 E65.64914
G1 X66.854 Y100.068 E65.66485
G1 X66.968 Y100.534 E65.6808
G1 X67 Y100.998 E65.69627
G1 X66.961 Y101.488 E65.71262
G1 X66.859 Y101.918 E65.72732
G1 X66.675 Y102.369 E65.74352
G1 X66.429 Y102.765 E65.75903
G1 X66.124 Y103.125 E65.77472
G1 X65.746 Y103.44 E65.79109
G1 X65.37 Y103.671 E65.80576
G1 X64.929 Y103.852 E65.82162
G1 X64.475 Y103.963 E65.83716
G0 F6000 X64.411 Y103.568
G1 F900 X64 Y103.603 E65.85088
G1 X63.589 Y103.568 E65.8646
G1 X63.195 Y103.472 E65.87809
G1 X62.813 Y103.315 E65.89183
G1 X62.468 Y103.101 E65.90533
G1 X62.156 Y102.835 E65.91897
G1 X61.895 Y102.526 E65.93242
G1 X61.693 Y102.202 E65.94512
G1 X61.542 Y101.844 E65.95804
G1 X61.514 Y101.758 E65.96105
G1 X61.433 Y101.419 E65.97264
G1 X61.397 Y101.004 E65.9865
G1 X61.429 Y100.607 E65.99974
G1 X61.526 Y100.2 E66.01366
G1 X61.681 Y99.816 E66.02743
G1 X61.897 Y99.471 E66.04097
G1 X62.158 Y99.163 E66.0544
G1 X62.435 Y98.925 E66.06655
G1 X62.787 Y98.699 E66.08046
G1 X63.196 Y98.528 E66.0952
G1 X63.59 Y98.432 E66.10869
G1 X64.004 Y98.397 E66.12251
G1 X64.407 Y98.431 E66.13596
G1 X64.804 Y98.526 E66.14954
G1 X65.19 Y98.684 E66.16341
G1 X65.565 Y98.925 E66.17824
G1 X65.843 Y99.161 E66.19037
G1 X66.075 Y99.435 E66.20231
G1 X66.317 Y99.812 E66.21721
G1 X66.476 Y100.2 E66.23115
G1 X66.574 Y100.637 E66.24605
G1 X66.603 Y101 E66.25816
G1 X66.567 Y101.419 E66.27215
G1 X66.476 Y101.8 E66.28518
G1 X66.317 Y102.188 E66.29912
G1 X66.075 Y102.565 E66.31402
G1 X65.842 Y102.84 E66.32601
G1 X65.54 Y103.095 E66.33916
G1 X65.187 Y103.315 E66.35299
G1 X64.805 Y103.472 E66.36673
G1 X64.411 Y103.568 E66.38022
G0 F6000 X64.347 Y103.173
;TYPE:WALL-OUTER
G1 F900 X63.984 Y103.2 E66.39232
G1 X63.653 Y103.173 E66.40337
G1 X63.319 Y103.092 E66.4148
G1 X63.012 Y102.967 E66.42582
G1 X62.705 Y102.779 E66.4378
G1 X62.441 Y102.554 E66.44933
G1 X62.22 Y102.293 E66.46071
G1 X62.039 Y102.001 E66.47214
G1 X61.912 Y101.692 E66.48325
G1 X61.826 Y101.342 E66.49524
G1 X61.8 Y100.986 E66.50711
G1 X61.826 Y100.659 E66.51802
G1 X61.907 Y100.322 E66.52955
G1 X62.04 Y99.997 E66.54123
G1 X62.221 Y99.706 E66.55262
G1 X62.442 Y99.445 E66.564
G1 X62.706 Y99.221 E66.57551
G1 X62.987 Y99.045 E66.58654
G1 X63.32 Y98.908 E66.59852
G1 X63.653 Y98.827 E66.60992
G1 X64.016 Y98.8 E66.62202
G1 X64.346 Y98.827 E66.63304
G1 X64.694 Y98.913 E66.64496
G1 X64.988 Y99.033 E66.65552
G1 X65.306 Y99.23 E66.66796
G1 X65.569 Y99.457 E66.67952
G1 X65.77 Y99.694 E66.68985
G1 X65.967 Y100.012 E66.70229
G1 X66.087 Y100.305 E66.71283
G1 X66.17 Y100.637 E66.72421
G1 X66.2 Y100.982 E66.73573
G1 X66.173 Y101.35 E66.748
G1 X66.088 Y101.692 E66.75972
G1 X65.967 Y101.988 E66.77036
G1 X65.77 Y102.306 E66.7828
G1 X65.546 Y102.566 E66.79421
G1 X65.298 Y102.777 E66.80504
G1 X65.004 Y102.959 E66.81654
G1 X64.681 Y103.092 E66.82816
G1 X64.347 Y103.173 E66.83959
G1 F2700 E60.83959
G0 F6000 X64.51 Y103.854
G0 X64.095 Y104.178
G0 X64.095 Y106.822
G0 X65.671 Y107.701
G0 X66.299 Y108.329
G0 X66.703 Y109.122
G0 X66.843 Y110
G0 X66.703 Y110.878
G0 X66.299 Y111.671
G0 X65.734 Y112.236
G0 X64.475 Y112.963
;TYPE:WALL-INNER
G1 F2700 E66.83959
G1 F900 X64 Y113.005 E66.85545
G1 X63.525 Y112.963 E66.87131
G1 X63.071 Y112.852 E66.88686
G1 X62.63 Y112.671 E66.90271
G1 X62.231 Y112.423 E66.91834
G1 X61.871 Y112.116 E66.93407
G1 X61.57 Y111.759 E66.9496
G1 X61.323 Y111.364 E66.9651
G1 X61.141 Y110.91 E66.98137
G1 X61.039 Y110.488 E66.99581
G1 X61 Y110.029 E67.01113
G1 X61.033 Y109.553 E67.027
G1 X61.141 Y109.09 E67.04281
G1 X61.323 Y108.636 E67.05908
G1 X61.57 Y108.241 E67.07457
G1 X61.871 Y107.884 E67.09011
G1 X62.231 Y107.577 E67.10584
G1 X62.63 Y107.329 E67.12147
G1 X63.071 Y107.148 E67.13732
G1 X63.525 Y107.037 E67.15287
G1 X64 Y106.995 E67.16873
G1 X64.475 Y107.037 E67.18459
G1 X64.929 Y107.148 E67.20013
G1 X65.37 Y107.329 E67.21599
G1 X65.746 Y107.56 E67.23066
G1 X66.124 Y107.875 E67.24703
G1 X66.429 Y108.235 E67.26272
G1 X66.675 Y108.631 E67.27823
G1 X66.854 Y109.068 E67.29394
G1 X66.968 Y109.534 E67.30989
G1 X67 Y109.998 E67.32536
G1 X66.973 Y110.394 E67.33856
G1 X66.961 Y110.488 E67.34171
G1 X66.859 Y110.918 E67.35641
G1 X66.675 Y111.369 E67.37261
G1 X66.429 Y111.765 E67.38812
G1 X66.124 Y112.125 E67.40381
G1 X65.746 Y112.44 E67.42018
G1 X65.37 Y112.671 E67.43486
G1 X64.929 Y112.852 E67.45071
G1 X64.475 Y112.963 E67.46626
G0 F6000 X64.411 Y112.568
G1 F900 X64 Y112.603 E67.47998
G1 X63.589 Y112.568 E67.49369
